resources/haticons/SVG/ungroup.svg

<!-- Generated by IcoMoon.io -->
<svg version="1.1" xmlns="http://www.w3.org/2000/svg" width="24" height="24" viewBox="0 0 24 24">
<title>ungroup</title>
<path d="M9 10.875c0 0.619-0.506 1.125-1.125 1.125h-2.25c-0.619 0-1.125-0.506-1.125-1.125v-2.25c0-0.619 0.506-1.125 1.125-1.125h2.25c0.619 0 1.125 0.506 1.125 1.125v2.25z"></path>
<path d="M16.5 10.875c0 0.619-0.506 1.125-1.125 1.125h-2.25c-0.619 0-1.125-0.506-1.125-1.125v-2.25c0-0.619 0.506-1.125 1.125-1.125h2.25c0.619 0 1.125 0.506 1.125 1.125v2.25z"></path>
<path d="M9 18.375c0 0.619-0.506 1.125-1.125 1.125h-2.25c-0.619 0-1.125-0.506-1.125-1.125v-2.25c0-0.619 0.506-1.125 1.125-1.125h2.25c0.619 0 1.125 0.506 1.125 1.125v2.25z"></path>
<path d="M16.5 18.375c0 0.619-0.506 1.125-1.125 1.125h-2.25c-0.619 0-1.125-0.506-1.125-1.125v-2.25c0-0.619 0.506-1.125 1.125-1.125h2.25c0.619 0 1.125 0.506 1.125 1.125v2.25z"></path>
<path d="M21.377 3.75l2.623-2.623v-1.127h-1.127l-2.623 2.623-2.623-2.623h-1.127v1.127l2.623 2.623-2.623 2.623v1.127h1.127l2.623-2.623 2.623 2.623h1.127v-1.127z"></path>
<path d="M0 18h1.5v3h-1.5v-3z"></path>
<path d="M0 13.5h1.5v3h-1.5v-3z"></path>
<path d="M19.5 10.5h1.5v3h-1.5v-3z"></path>
<path d="M19.5 19.5h1.5v3h-1.5v-3z"></path>
<path d="M19.5 15h1.5v3h-1.5v-3z"></path>
<path d="M0 9h1.5v3h-1.5v-3z"></path>
<path d="M0 4.5h1.5v3h-1.5v-3z"></path>
<path d="M12 3h3v1.5h-3v-1.5z"></path>
<path d="M7.5 3h3v1.5h-3v-1.5z"></path>
<path d="M3 3h3v1.5h-3v-1.5z"></path>
<path d="M10.5 22.5h3v1.5h-3v-1.5z"></path>
<path d="M15 22.5h3v1.5h-3v-1.5z"></path>
<path d="M6 22.5h3v1.5h-3v-1.5z"></path>
<path d="M1.5 22.5h3v1.5h-3v-1.5z"></path>
</svg>

<svg xmlns="http://www.w3.org/2000/svg" width="24" height="24"><path d="M9 10.875C9 11.494 8.494 12 7.875 12h-2.25A1.128 1.128 0 0 1 4.5 10.875v-2.25c0-.619.506-1.125 1.125-1.125h2.25C8.494 7.5 9 8.006 9 8.625v2.25zm7.5 0c0 .619-.506 1.125-1.125 1.125h-2.25A1.128 1.128 0 0 1 12 10.875v-2.25c0-.619.506-1.125 1.125-1.125h2.25c.619 0 1.125.506 1.125 1.125v2.25zm-7.5 7.5c0 .619-.506 1.125-1.125 1.125h-2.25A1.128 1.128 0 0 1 4.5 18.375v-2.25c0-.619.506-1.125 1.125-1.125h2.25C8.494 15 9 15.506 9 16.125v2.25zm7.5 0c0 .619-.506 1.125-1.125 1.125h-2.25A1.128 1.128 0 0 1 12 18.375v-2.25c0-.619.506-1.125 1.125-1.125h2.25c.619 0 1.125.506 1.125 1.125v2.25zM21.377 3.75L24 1.127V0h-1.127L20.25 2.623 17.627 0H16.5v1.127l2.623 2.623L16.5 6.373V7.5h1.127l2.623-2.623L22.873 7.5H24V6.373zM0 18h1.5v3H0v-3zm0-4.5h1.5v3H0v-3zm19.5-3H21v3h-1.5v-3zm0 9H21v3h-1.5v-3zm0-4.5H21v3h-1.5v-3zM0 9h1.5v3H0V9zm0-4.5h1.5v3H0v-3zM12 3h3v1.5h-3V3zM7.5 3h3v1.5h-3V3zM3 3h3v1.5H3V3zm7.5 19.5h3V24h-3v-1.5zm4.5 0h3V24h-3v-1.5zm-9 0h3V24H6v-1.5zm-4.5 0h3V24h-3v-1.5z"/></svg>
